svg/n8n.svg

<svg width="228" height="120" viewBox="0 0 228 120" fill="none" xmlns="http://www.w3.org/2000/svg">
<path fill-rule="evenodd" clip-rule="evenodd" d="M204 48C192.817 48 183.42 40.3514 180.756 30H153.248C147.382 30 142.376 34.241 141.412 40.0272L140.425 45.9456C139.489 51.5648 136.646 56.4554 132.626 60C136.646 63.5446 139.489 68.4352 140.425 74.0544L141.412 79.9728C142.376 85.759 147.382 90 153.248 90H156.756C159.42 79.6486 168.817 72 180 72C193.255 72 204 82.7452 204 96C204 109.255 193.255 120 180 120C168.817 120 159.42 112.351 156.756 102H153.248C141.516 102 131.504 93.5181 129.575 81.9456L128.588 76.0272C127.624 70.241 122.618 66 116.752 66H107.244C104.58 76.3514 95.183 84 84 84C72.817 84 63.4204 76.3514 60.7561 66H47.2439C44.5796 76.3514 35.183 84 24 84C10.7452 84 0 73.2548 0 60C0 46.7452 10.7452 36 24 36C35.183 36 44.5796 43.6486 47.2439 54H60.7561C63.4204 43.6486 72.817 36 84 36C95.183 36 104.58 43.6486 107.244 54H116.752C122.618 54 127.624 49.759 128.588 43.9728L129.575 38.0544C131.504 26.4819 141.516 18 153.248 18L180.756 18C183.42 7.64864 192.817 0 204 0C217.255 0 228 10.7452 228 24C228 37.2548 217.255 48 204 48ZM204 36C210.627 36 216 30.6274 216 24C216 17.3726 210.627 12 204 12C197.373 12 192 17.3726 192 24C192 30.6274 197.373 36 204 36ZM24 72C30.6274 72 36 66.6274 36 60C36 53.3726 30.6274 48 24 48C17.3726 48 12 53.3726 12 60C12 66.6274 17.3726 72 24 72ZM96 60C96 66.6274 90.6274 72 84 72C77.3726 72 72 66.6274 72 60C72 53.3726 77.3726 48 84 48C90.6274 48 96 53.3726 96 60ZM192 96C192 102.627 186.627 108 180 108C173.373 108 168 102.627 168 96C168 89.3726 173.373 84 180 84C186.627 84 192 89.3726 192 96Z" fill="#EA4B71"/>
</svg>

<svg xmlns="http://www.w3.org/2000/svg" width="228" height="120" fill="none"><path fill="#EA4B71" fill-rule="evenodd" d="M204 48c-11.183 0-20.58-7.649-23.244-18h-27.508a11.999 11.999 0 0 0-11.836 10.027l-.987 5.919A23.944 23.944 0 0 1 132.626 60a23.944 23.944 0 0 1 7.799 14.054l.987 5.919A11.999 11.999 0 0 0 153.248 90h3.508C159.42 79.649 168.817 72 180 72c13.255 0 24 10.745 24 24s-10.745 24-24 24c-11.183 0-20.58-7.649-23.244-18h-3.508c-11.732 0-21.744-8.482-23.673-20.054l-.987-5.919A11.999 11.999 0 0 0 116.752 66h-9.508C104.58 76.351 95.183 84 84 84s-20.58-7.649-23.244-18H47.244C44.58 76.351 35.183 84 24 84 10.745 84 0 73.255 0 60s10.745-24 24-24c11.183 0 20.58 7.649 23.244 18h13.512C63.42 43.649 72.817 36 84 36s20.58 7.649 23.244 18h9.508a11.999 11.999 0 0 0 11.836-10.027l.987-5.919C131.504 26.482 141.516 18 153.248 18h27.508C183.42 7.649 192.817 0 204 0c13.255 0 24 10.745 24 24s-10.745 24-24 24Zm0-12c6.627 0 12-5.373 12-12s-5.373-12-12-12-12 5.373-12 12 5.373 12 12 12ZM24 72c6.627 0 12-5.373 12-12s-5.373-12-12-12-12 5.373-12 12 5.373 12 12 12Zm72-12c0 6.627-5.373 12-12 12s-12-5.373-12-12 5.373-12 12-12 12 5.373 12 12Zm96 36c0 6.627-5.373 12-12 12s-12-5.373-12-12 5.373-12 12-12 12 5.373 12 12Z" clip-rule="evenodd"/></svg>
